X: 745
T: The Girl With the Laughing Eyes   #2
R: reel
%S: s:2 b:12(6+6)
B: Francis O'Neill: "The Dance Music of Ireland" (1907) #745
Z: Frank Nordberg - http://www.musicaviva.com
F: http://www.musicaviva.com/abc/tunes/ireland/oneill-1001/0745/oneill-1001-0745-1.abc
N: Compacted via repeats and two kinds of multiple endings [JC]
M: C|
L: 1/8
K: D
"^A"[|]\
(3(ABc) |: d2(FG) Adef | gfed gdBc | d2(FG) [1 A2(AB) | AFEG FDDA :|[2 A2(ag) | faef d2 |]
"^B"
|:: (3(efg) | afbf afdf |[1 gfed cd :|[2 abag fd :|[3 gfed fdBc | d2FG A2(ag) | faef d2 |]
